X:1
T:Little Etude after Godefroid
T:for Lever Harp 
%%score { ( 1 2 ) | 3 }
L:1/8
Q:1/4=100
M:2/4
K:G
V:1 treble nm="Midi_1"
V:2 treble 
V:3 bass 
V:1
 ^D2 |:"^Andantino" (3(cE!<(!B"_dolente e delicatamente"(3GcB!<)! | (3fGe(3Bfe) | %3
 (3(cEB!<(!(3GcB!<)! | (3fGe(3Bfe) | (3(eF^d!<(!(3Aed!<)! | (3gAf(3cgf) | (3(eF^d(3Aed | %8
 (3c^DB(3FcB) |!pp! (3(cE!<(!B(3GcB!<)! | (3fGe(3Bfe) | (3(cEB!<(!(3GcB!<)! | (3fGe(3Bfe) | %13
 (3(eF^d!<(!(3Aed!<)! | (3gAf(3cgf) | (3(eF^d(3Aed | (3c^DB(3FcB) | (3(c"_cresc."E!<(!B(3GcB!<)! | %18
 (3fGe(3Bfe) | (3(eF!courtesy!=d(3Aed | (3eFd(3Aed) | (3(eG!<(!d(3Bed!<)! | (3aBg(3dag) | %23
 (3(gAf(3cgf | (3gAf(3cgf) |"_dimin." (3(fGe(3Bfe | (3fGe(3Bfe) | (3(fGe(3cfe | (3fGe(3cfe) | %29
 (3(^d"_rall."^DB(3FcB | (3c^DB(3FcB) | (3(c^DB(3FcB | (3c^DB(3FcB) | (3(cEB!<(!(3GcB!<)! | %34
 (3fGe(3Bfe) | (3(cEB!<(!(3GcB!<)! | (3fGe(3Bfe) | (3(eF!<(!^d(3Aed)!<)! | (3(gAf(3cgf) | %39
 (3(eF^d(3Aed |1 (3c^DB(3FcB) :|2 (3(c^DB(3FAG || E4- | E4- | !fermata!E4) |] %45
V:2
 ^d2 |: x4 | x4 | x4 | x4 | x4 | x4 | x4 | x4 | x4 | x4 | x4 | x4 | x4 | x4 | x4 | x4 | x4 | x4 | %19
 x4 | x4 | x4 | x4 | x4 | x4 | x4 | x4 | x4 | x4 | x4 | x4 | x4 | x4 | x4 | x4 | x4 | x4 | x4 | %38
 x4 | x4 |1 x4 :|2 x4 || x4 | x4 | x4 |] %45
V:3
 x2 |:!pp! E,2 [G,B,]2 | [G,B,]2 [G,B,]2 | E,2 [G,B,]2 | [G,B,]2 [G,B,]2 | F,2 [A,C]2 | %6
 [A,C]2 [A,C]2 | B,,2 B,2 | B,2 A,2 | E,2 [G,B,]2 | [G,B,]2 [G,B,]2 | E,2 [G,B,]2 | %12
 [G,B,]2 [G,B,]2 | F,2 [A,C]2 | [A,C]2 [A,C]2 | B,,2 B,2 | B,2[K:treble] =d2 | E,2 [G,B,]2 | %18
 [G,B,]2 [G,B,]2 | F,2 [A,C]2 | [A,C]2 [A,C]2 | D,2 [G,B,]2 | [G,B,]2 [G,B,]2 | E,2 [A,C]2 | %24
 [A,C]2 [A,C]2 | B,,2 [G,B,]2 | [G,B,]2 [G,B,]2 | C,2 [CE]2 | [CE]2[K:treble] ^d2 | %29
 B,,2"_marcate" (.B,2 | .B,2 .B,2 | .B,2 .A,2 | .G,2 .F,2) | E,2 [G,B,]2 | [G,B,]2 [G,B,]2 | %35
 E,2 [G,B,]2 | [G,B,]2 [G,B,]2 | F,2 [A,C]2 | [A,C]2 [A,C]2 | B,,4 |1 B,2 A,2 :|2 B,4 || %42
 (3z (CB,(3F,A,G, | E,2) B,,2 | !fermata!E,,4 |] %45

